packages/assets/static/images/icons/file-jpg.svg

<svg width="24" height="24" viewBox="0 0 24 24" xmlns="http://www.w3.org/2000/svg">
<path d="M11.8125 14.2505H10.3125C10.1136 14.2505 9.92282 14.3295 9.78217 14.4702C9.64152 14.6108 9.5625 14.8016 9.5625 15.0005V20.2505C9.5625 20.4494 9.64152 20.6402 9.78217 20.7808C9.92282 20.9215 10.1136 21.0005 10.3125 21.0005C10.5114 21.0005 10.7022 20.9215 10.8428 20.7808C10.9835 20.6402 11.0625 20.4494 11.0625 20.2505V19.5005H11.8125C12.5087 19.5005 13.1764 19.2239 13.6687 18.7316C14.1609 18.2394 14.4375 17.5717 14.4375 16.8755C14.4375 16.1793 14.1609 15.5116 13.6687 15.0193C13.1764 14.527 12.5087 14.2505 11.8125 14.2505ZM11.8125 18.0005H11.0625V15.7505H11.8125C12.1109 15.7505 12.397 15.869 12.608 16.08C12.819 16.291 12.9375 16.5771 12.9375 16.8755C12.9375 17.1739 12.819 17.46 12.608 17.671C12.397 17.882 12.1109 18.0005 11.8125 18.0005ZM20.8125 18.0005V19.5821C20.8125 19.7752 20.7379 19.9609 20.6044 20.1005C20.3432 20.3816 20.0274 20.6064 19.6763 20.7612C19.3252 20.916 18.9462 20.9974 18.5625 21.0005C16.9078 21.0005 15.5625 19.4864 15.5625 17.6255C15.5625 15.7646 16.9078 14.2505 18.5625 14.2505C19.1139 14.2522 19.6522 14.4194 20.1075 14.7305C20.2723 14.8424 20.386 15.0152 20.4234 15.2109C20.4609 15.4065 20.4191 15.6091 20.3072 15.7739C20.1953 15.9388 20.0225 16.0524 19.8268 16.0899C19.6311 16.1273 19.4286 16.0855 19.2638 15.9736C19.058 15.8299 18.8135 15.7521 18.5625 15.7505C17.7356 15.7505 17.0625 16.5942 17.0625 17.6255C17.0625 18.6567 17.7356 19.5005 18.5625 19.5005C18.8331 19.4974 19.0957 19.4084 19.3125 19.2464V18.7505C19.1136 18.7505 18.9228 18.6715 18.7822 18.5308C18.6415 18.3902 18.5625 18.1994 18.5625 18.0005C18.5625 17.8016 18.6415 17.6108 18.7822 17.4702C18.9228 17.3295 19.1136 17.2505 19.3125 17.2505H20.0625C20.2614 17.2505 20.4522 17.3295 20.5928 17.4702C20.7335 17.6108 20.8125 17.8016 20.8125 18.0005ZM8.0625 15.0005V18.563C8.0625 19.2095 7.80569 19.8294 7.34857 20.2866C6.89145 20.7437 6.27147 21.0005 5.625 21.0005C4.97853 21.0005 4.35855 20.7437 3.90143 20.2866C3.44431 19.8294 3.1875 19.2095 3.1875 18.563C3.1875 18.3641 3.26652 18.1733 3.40717 18.0327C3.54782 17.892 3.73859 17.813 3.9375 17.813C4.13641 17.813 4.32718 17.892 4.46783 18.0327C4.60848 18.1733 4.6875 18.3641 4.6875 18.563C4.6875 18.8116 4.78627 19.0501 4.96209 19.2259C5.1379 19.4017 5.37636 19.5005 5.625 19.5005C5.87364 19.5005 6.1121 19.4017 6.28791 19.2259C6.46373 19.0501 6.5625 18.8116 6.5625 18.563V15.0005C6.5625 14.8016 6.64152 14.6108 6.78217 14.4702C6.92282 14.3295 7.11359 14.2505 7.3125 14.2505C7.51141 14.2505 7.70218 14.3295 7.84283 14.4702C7.98348 14.6108 8.0625 14.8016 8.0625 15.0005ZM20.5931 8.46986L15.3431 3.21986C15.2734 3.15024 15.1907 3.09503 15.0996 3.05739C15.0086 3.01975 14.911 3.00041 14.8125 3.00049H5.8125C5.41468 3.00049 5.03314 3.15852 4.75184 3.43983C4.47054 3.72113 4.3125 4.10266 4.3125 4.50049V11.2505C4.3125 11.4494 4.39152 11.6402 4.53217 11.7808C4.67282 11.9215 4.86359 12.0005 5.0625 12.0005C5.26141 12.0005 5.45218 11.9215 5.59283 11.7808C5.73348 11.6402 5.8125 11.4494 5.8125 11.2505V4.50049H14.0625V9.00049C14.0625 9.1994 14.1415 9.39017 14.2822 9.53082C14.4228 9.67147 14.6136 9.75049 14.8125 9.75049H19.3125V11.2505C19.3125 11.4494 19.3915 11.6402 19.5322 11.7808C19.6728 11.9215 19.8636 12.0005 20.0625 12.0005C20.2614 12.0005 20.4522 11.9215 20.5928 11.7808C20.7335 11.6402 20.8125 11.4494 20.8125 11.2505V9.00049C20.8126 8.90197 20.7932 8.8044 20.7556 8.71335C20.718 8.6223 20.6628 8.53957 20.5931 8.46986ZM15.5625 8.25049V5.5608L18.2522 8.25049H15.5625Z"/>
</svg>

<svg viewBox="0 0 24 24" xmlns="http://www.w3.org/2000/svg" aria-hidden="true" fill="currentColor"><path d="M11.813 14.25h-1.5a.75.75 0 0 0-.75.75v5.25a.75.75 0 1 0 1.5 0v-.75h.75a2.625 2.625 0 0 0 0-5.25m0 3.75h-.75v-2.25h.75a1.125 1.125 0 1 1 0 2.25m9 0v1.582a.75.75 0 0 1-.209.518 2.82 2.82 0 0 1-2.041.9c-1.655 0-3-1.514-3-3.375s1.345-3.374 3-3.374c.55.001 1.09.168 1.545.48a.751.751 0 0 1-.844 1.243 1.24 1.24 0 0 0-.701-.223c-.827 0-1.5.843-1.5 1.874s.673 1.875 1.5 1.875c.27-.003.533-.092.75-.254v-.495a.75.75 0 1 1 0-1.5h.75a.75.75 0 0 1 .75.75m-12.75-3v3.563a2.438 2.438 0 0 1-4.876 0 .75.75 0 1 1 1.5 0 .937.937 0 0 0 1.875 0v-3.562a.75.75 0 1 1 1.5 0m12.53-6.53-5.25-5.25a.75.75 0 0 0-.53-.22h-9a1.5 1.5 0 0 0-1.5 1.5v6.75a.75.75 0 1 0 1.5 0V4.5h8.25V9a.75.75 0 0 0 .75.75h4.5v1.5a.75.75 0 1 0 1.5 0V9a.75.75 0 0 0-.22-.53m-5.03-.22V5.56l2.69 2.69z"/></svg>
